swiss/communes/5804.svg

<?xml version="1.0" encoding="UTF-8" standalone="no"?>
<svg
   xmlns:dc="http://purl.org/dc/elements/1.1/"
   xmlns:cc="http://creativecommons.org/ns#"
   xmlns:rdf="http://www.w3.org/1999/02/22-rdf-syntax-ns#"
   xmlns:svg="http://www.w3.org/2000/svg"
   xmlns="http://www.w3.org/2000/svg"
   xmlns:xlink="http://www.w3.org/1999/xlink"
   xmlns:sodipodi="http://sodipodi.sourceforge.net/DTD/sodipodi-0.dtd"
   xmlns:inkscape="http://www.inkscape.org/namespaces/inkscape"
   height="763"
   width="603"
   version="1.0"
   id="svg20"
   sodipodi:version="0.32"
   inkscape:version="0.46"
   sodipodi:docname="Jorat-Menthue-coat of arms.svg"
   sodipodi:docbase="C:\Users\Camilo\Documents\Escudos de Suiza"
   inkscape:output_extension="org.inkscape.output.svg.inkscape">
  <metadata
     id="metadata31">
    <rdf:RDF>
      <cc:Work
         rdf:about="">
        <dc:format>image/svg+xml</dc:format>
        <dc:type
           rdf:resource="http://purl.org/dc/dcmitype/StillImage" />
        <dc:date>06-SEP-2011</dc:date>
        <dc:creator>
          <cc:Agent>
            <dc:title>Aliman5040</dc:title>
          </cc:Agent>
        </dc:creator>
        <cc:license
           rdf:resource="http://creativecommons.org/licenses/GPL/2.0/" />
        <dc:coverage />
        <dc:description />
        <dc:subject>
          <rdf:Bag />
        </dc:subject>
        <dc:language />
        <dc:title>Wappen Gemeinde Jorat-Menthue</dc:title>
      </cc:Work>
      <cc:License
         rdf:about="http://creativecommons.org/licenses/GPL/2.0/">
        <cc:permits
           rdf:resource="http://web.resource.org/cc/Reproduction" />
        <cc:permits
           rdf:resource="http://web.resource.org/cc/Distribution" />
        <cc:requires
           rdf:resource="http://web.resource.org/cc/Notice" />
        <cc:permits
           rdf:resource="http://web.resource.org/cc/DerivativeWorks" />
        <cc:requires
           rdf:resource="http://web.resource.org/cc/ShareAlike" />
        <cc:requires
           rdf:resource="http://web.resource.org/cc/SourceCode" />
      </cc:License>
    </rdf:RDF>
  </metadata>
  <defs
     id="defs29">
    <inkscape:perspective
       sodipodi:type="inkscape:persp3d"
       inkscape:vp_x="0 : 381.5 : 1"
       inkscape:vp_y="0 : 1000 : 0"
       inkscape:vp_z="603 : 381.5 : 1"
       inkscape:persp3d-origin="301.5 : 254.33333 : 1"
       id="perspective5149" />
    <linearGradient
       id="linearGradient2893">
      <stop
         style="stop-color:#ffffff;stop-opacity:0.3137255;"
         offset="0"
         id="stop2895" />
      <stop
         id="stop2897"
         offset="0.19"
         style="stop-color:#ffffff;stop-opacity:0.25098041;" />
      <stop
         style="stop-color:#6b6b6b;stop-opacity:0.1254902;"
         offset="0.60000002"
         id="stop2901" />
      <stop
         style="stop-color:#000000;stop-opacity:0.1254902;"
         offset="1"
         id="stop2899" />
    </linearGradient>
    <radialGradient
       inkscape:collect="always"
       xlink:href="#linearGradient2893"
       id="radialGradient3236"
       gradientUnits="userSpaceOnUse"
       gradientTransform="matrix(1.215027,1.531577e-24,1.464684e-23,1.266667,-839.1924,-490.4894)"
       cx="858.04236"
       cy="579.93323"
       fx="858.04236"
       fy="579.93323"
       r="300" />
    <inkscape:perspective
       id="perspective5197"
       inkscape:persp3d-origin="372.04724 : 350.78739 : 1"
       inkscape:vp_z="744.09448 : 526.18109 : 1"
       inkscape:vp_y="0 : 1000 : 0"
       inkscape:vp_x="0 : 526.18109 : 1"
       sodipodi:type="inkscape:persp3d" />
    <inkscape:perspective
       id="perspective11351"
       inkscape:persp3d-origin="372.04724 : 350.78739 : 1"
       inkscape:vp_z="744.09448 : 526.18109 : 1"
       inkscape:vp_y="0 : 1000 : 0"
       inkscape:vp_x="0 : 526.18109 : 1"
       sodipodi:type="inkscape:persp3d" />
  </defs>
  <sodipodi:namedview
     inkscape:window-height="720"
     inkscape:window-width="1280"
     inkscape:pageshadow="2"
     inkscape:pageopacity="0.0"
     guidetolerance="10.0"
     gridtolerance="10.0"
     objecttolerance="10.0"
     borderopacity="1.0"
     bordercolor="#666666"
     pagecolor="#ffffff"
     id="base"
     inkscape:zoom="0.44823067"
     inkscape:cx="395.577"
     inkscape:cy="345.04086"
     inkscape:window-x="-8"
     inkscape:window-y="-8"
     inkscape:current-layer="layer2"
     showgrid="true"
     showguides="true">
    <inkscape:grid
       type="xygrid"
       id="grid5151"
       visible="true"
       enabled="true" />
  </sodipodi:namedview>
  <g
     inkscape:groupmode="layer"
     id="layer1"
     inkscape:label="Fond écu"
     style="display:inline"
     sodipodi:insensitive="true">
    <path
       id="path1899"
       d="M 1.5,1.49998 L 1.5,460.3679 C 1.5,626.6785 135.81456,761.5 301.49999,761.5 C 467.18543,761.5 601.5,626.6785 601.5,460.3679 L 601.5,1.49998 L 1.5,1.49998 z"
       style="fill:#ffffff;fill-opacity:1" />
  </g>
  <g
     inkscape:groupmode="layer"
     id="layer2"
     inkscape:label="Meubles"
     style="display:inline"
     sodipodi:insensitive="true">
    <path
       style="opacity:1;fill:#5ab532;fill-opacity:1;fill-rule:evenodd;stroke:#000000;stroke-width:3.26397681;stroke-linecap:butt;stroke-linejoin:miter;stroke-miterlimit:4;stroke-dasharray:none;stroke-opacity:1"
       d="M 1.5,1.5 L 1.5,320.40625 C 5.849811,321.03313 9.9458458,321.31577 13.59375,321.125 C 38.752109,319.80932 60.014557,300.99301 85.59375,301.125 C 111.17295,301.25699 130.1153,321.257 157.5625,321.125 C 185.0097,320.99301 204.05325,301.125 229.53125,301.125 C 255.00925,301.125 274.67978,321.125 301.5,321.125 C 328.32022,321.12501 346.94235,301.25699 373.46875,301.125 C 399.99515,300.99301 419.9903,320.993 445.4375,321.125 C 470.8847,321.25701 495.10254,301.125 517.40625,301.125 C 539.70996,301.125 560.01184,320.993 589.40625,321.125 C 593.2533,321.14228 597.32628,320.80511 601.5,320.21875 L 601.5,1.5 L 1.5,1.5 z M 85.59375,320.875 C 61.172943,320.74301 38.555189,340.875 13.59375,340.875 C 9.956839,340.875 5.8595167,340.44418 1.5,339.71875 L 1.5,360.40625 C 5.849811,361.03313 9.9458458,361.31577 13.59375,361.125 C 38.752109,359.80932 60.014557,340.99301 85.59375,341.125 C 111.17295,341.25699 130.1153,361.257 157.5625,361.125 C 185.0097,360.99301 204.05325,341.125 229.53125,341.125 C 255.00925,341.125 274.67978,361.125 301.5,361.125 C 328.32022,361.12501 346.94235,341.25699 373.46875,341.125 C 399.99515,340.99301 419.9903,360.993 445.4375,361.125 C 470.8847,361.25701 495.10254,341.125 517.40625,341.125 C 539.70996,341.125 560.01184,360.993 589.40625,361.125 C 593.2533,361.14228 597.32628,360.80511 601.5,360.21875 L 601.5,339.875 C 597.32656,340.47953 593.25306,340.85773 589.40625,340.875 C 560.01184,341.00699 539.62811,320.875 517.40625,320.875 C 495.18439,320.875 469.9903,341.007 445.4375,340.875 C 418.6685,340.73108 399.99515,321.00699 373.46875,320.875 C 346.94235,320.74301 328.29207,340.875 301.5,340.875 C 274.70793,340.87499 254.56922,320.875 229.53125,320.875 C 204.49328,320.875 185.0097,341.007 157.5625,340.875 C 130.1153,340.74299 110.01456,321.00699 85.59375,320.875 z M 85.59375,360.875 C 61.172943,360.74301 38.555189,380.875 13.59375,380.875 C 9.956839,380.875 5.8595167,380.44418 1.5,379.71875 L 1.5,400.40625 C 5.849811,401.03313 9.9458458,401.31577 13.59375,401.125 C 38.752109,399.80932 60.014557,380.99301 85.59375,381.125 C 111.17295,381.25699 130.1153,401.257 157.5625,401.125 C 185.0097,400.99301 204.05325,381.125 229.53125,381.125 C 255.00925,381.125 274.67978,401.125 301.5,401.125 C 328.32022,401.12501 346.94235,381.25699 373.46875,381.125 C 399.99515,380.99301 419.9903,400.993 445.4375,401.125 C 470.8847,401.25701 495.10254,381.125 517.40625,381.125 C 539.70996,381.125 560.01184,400.993 589.40625,401.125 C 593.2533,401.14228 597.32628,400.80511 601.5,400.21875 L 601.5,379.875 C 597.32656,380.47953 593.25306,380.85773 589.40625,380.875 C 560.01184,381.00699 539.62811,360.875 517.40625,360.875 C 495.18439,360.875 469.9903,381.007 445.4375,380.875 C 418.6685,380.73108 399.99515,361.00699 373.46875,360.875 C 346.94235,360.74301 328.29207,380.875 301.5,380.875 C 274.70793,380.87499 254.56922,360.875 229.53125,360.875 C 204.49328,360.875 185.0097,381.007 157.5625,380.875 C 130.1153,380.74299 110.01456,361.00699 85.59375,360.875 z M 85.59375,400.875 C 61.172943,400.74301 38.555189,420.875 13.59375,420.875 C 9.956839,420.875 5.8595167,420.44418 1.5,419.71875 L 1.5,440.40625 C 5.849811,441.03313 9.9458458,441.31577 13.59375,441.125 C 38.752109,439.80932 60.014557,420.99301 85.59375,421.125 C 111.17295,421.25699 130.1153,441.257 157.5625,441.125 C 185.0097,440.99301 204.05325,421.125 229.53125,421.125 C 255.00925,421.125 274.67978,441.125 301.5,441.125 C 328.32022,441.12501 346.94235,421.25699 373.46875,421.125 C 399.99515,420.99301 419.9903,440.993 445.4375,441.125 C 470.8847,441.25701 495.10254,421.125 517.40625,421.125 C 539.70996,421.125 560.01184,440.993 589.40625,441.125 C 593.2533,441.14228 597.32628,440.80511 601.5,440.21875 L 601.5,419.875 C 597.32656,420.47953 593.25306,420.85773 589.40625,420.875 C 560.01184,421.00699 539.62811,400.875 517.40625,400.875 C 495.18439,400.875 469.9903,421.007 445.4375,420.875 C 418.6685,420.73108 399.99515,401.00699 373.46875,400.875 C 346.94235,400.74301 328.29207,420.875 301.5,420.875 C 274.70793,420.87499 254.56922,400.875 229.53125,400.875 C 204.49328,400.875 185.0097,421.007 157.5625,420.875 C 130.1153,420.74299 110.01456,401.00699 85.59375,400.875 z"
       id="path11357" />
    <path
       style="opacity:1;fill:#5ab532;fill-opacity:1;fill-rule:evenodd;stroke:#000000;stroke-width:3.09809923;stroke-linecap:butt;stroke-linejoin:miter;stroke-miterlimit:4;stroke-dasharray:none;stroke-opacity:1"
       d="M 377.88343,719.74856 L 412.11657,719.74856 C 402.1319,712.61665 402.1319,669.82523 403.55828,634.16571 L 444.92332,641.29762 L 430.65952,627.0338 L 473.45095,634.16571 C 452.05523,619.9019 437.79143,605.63809 423.52761,577.11048 L 452.05523,584.24238 C 430.65952,562.84666 423.52761,548.58286 409.26381,527.18714 L 430.65952,534.31904 C 409.26381,512.92333 402.1319,491.52761 394.99999,463 C 387.86809,491.52761 380.73618,512.92333 359.34048,534.31904 L 380.73618,527.18714 C 366.47238,548.58286 359.34048,562.84666 337.94476,584.24238 L 366.47238,577.11048 C 352.20857,605.63809 337.94476,619.9019 316.54905,634.16571 L 359.34048,627.0338 L 345.07666,641.29762 L 386.4417,634.16571 C 387.86809,669.82523 387.86809,712.61665 377.88343,719.74856 z"
       id="path12175"
       sodipodi:nodetypes="cccccccccccccccccccc" />
    <path
       sodipodi:nodetypes="cccccccccccccccccccc"
       id="path12177"
       d="M 284.38344,282.50897 L 318.61657,282.50897 C 308.63191,275.37706 308.63191,232.58565 310.05827,196.92612 L 351.42331,204.05803 L 337.15952,189.79422 L 379.95095,196.92612 C 358.55523,182.66232 344.29142,168.39851 330.02762,139.8709 L 358.55523,147.0028 C 337.15952,125.60708 330.02762,111.34328 315.76381,89.947558 L 337.15952,97.079464 C 315.76381,75.683755 308.63191,54.288036 301.5,25.760431 C 294.36809,54.288036 287.23619,75.683755 265.84049,97.079464 L 287.23619,89.947558 C 272.97238,111.34328 265.84049,125.60708 244.44476,147.0028 L 272.97238,139.8709 C 258.70858,168.39851 244.44476,182.66232 223.04905,196.92612 L 265.84049,189.79422 L 251.57665,204.05803 L 292.9417,196.92612 C 294.36809,232.58565 294.36809,275.37706 284.38344,282.50897 z"
       style="opacity:1;fill:#ffffff;fill-opacity:1;fill-rule:evenodd;stroke:#000000;stroke-width:3.09809899;stroke-linecap:butt;stroke-linejoin:miter;stroke-miterlimit:4;stroke-dasharray:none;stroke-opacity:1" />
    <path
       style="opacity:1;fill:#ffffff;fill-opacity:1;fill-rule:evenodd;stroke:#000000;stroke-width:3.09809899;stroke-linecap:butt;stroke-linejoin:miter;stroke-miterlimit:4;stroke-dasharray:none;stroke-opacity:1"
       d="M 472.88344,282.50897 L 507.11657,282.50897 C 497.13191,275.37706 497.13191,232.58565 498.55827,196.92612 L 539.92331,204.05803 L 525.65952,189.79422 L 568.45095,196.92612 C 547.05523,182.66232 532.79142,168.39851 518.52762,139.8709 L 547.05523,147.0028 C 525.65952,125.60708 518.52762,111.34328 504.26381,89.947558 L 525.65952,97.079464 C 504.26381,75.683755 497.13191,54.288036 490,25.760431 C 482.86809,54.288036 475.73619,75.683755 454.34049,97.079464 L 475.73619,89.947558 C 461.47238,111.34328 454.34049,125.60708 432.94476,147.0028 L 461.47238,139.8709 C 447.20858,168.39851 432.94476,182.66232 411.54905,196.92612 L 454.34049,189.79422 L 440.07665,204.05803 L 481.4417,196.92612 C 482.86809,232.58565 482.86809,275.37706 472.88344,282.50897 z"
       id="path12179"
       sodipodi:nodetypes="cccccccccccccccccccc" />
    <path
       style="opacity:1;fill:#ffffff;fill-opacity:1;fill-rule:evenodd;stroke:#000000;stroke-width:3.09809899;stroke-linecap:butt;stroke-linejoin:miter;stroke-miterlimit:4;stroke-dasharray:none;stroke-opacity:1"
       d="M 92.88344,282.50897 L 127.11657,282.50897 C 117.13191,275.37706 117.13191,232.58565 118.55827,196.92612 L 159.92331,204.05803 L 145.65952,189.79422 L 188.45095,196.92612 C 167.05523,182.66232 152.79142,168.39851 138.52762,139.8709 L 167.05523,147.0028 C 145.65952,125.60708 138.52762,111.34328 124.26381,89.947558 L 145.65952,97.079464 C 124.26381,75.683755 117.13191,54.288036 110,25.760431 C 102.86809,54.288036 95.73619,75.683755 74.340488,97.079464 L 95.73619,89.947558 C 81.472384,111.34328 74.340488,125.60708 52.944759,147.0028 L 81.472384,139.8709 C 67.208582,168.39851 52.944759,182.66232 31.549049,196.92612 L 74.340488,189.79422 L 60.076655,204.05803 L 101.4417,196.92612 C 102.86809,232.58565 102.86809,275.37706 92.88344,282.50897 z"
       id="path12181"
       sodipodi:nodetypes="cccccccccccccccccccc" />
    <path
       sodipodi:nodetypes="cccccccccccccccccccc"
       id="path12183"
       d="M 187.88343,719.74856 L 222.11657,719.74856 C 212.1319,712.61665 212.1319,669.82523 213.55828,634.16571 L 254.92332,641.29762 L 240.65952,627.0338 L 283.45095,634.16571 C 262.05523,619.9019 247.79143,605.63809 233.52761,577.11048 L 262.05523,584.24238 C 240.65952,562.84666 233.52761,548.58286 219.26381,527.18714 L 240.65952,534.31904 C 219.26381,512.92333 212.1319,491.52761 204.99999,463 C 197.86809,491.52761 190.73618,512.92333 169.34048,534.31904 L 190.73618,527.18714 C 176.47238,548.58286 169.34048,562.84666 147.94476,584.24238 L 176.47238,577.11048 C 162.20857,605.63809 147.94476,619.9019 126.54905,634.16571 L 169.34048,627.0338 L 155.07666,641.29762 L 196.4417,634.16571 C 197.86809,669.82523 197.86809,712.61665 187.88343,719.74856 z"
       style="opacity:1;fill:#5ab532;fill-opacity:1;fill-rule:evenodd;stroke:#000000;stroke-width:3.09809923;stroke-linecap:butt;stroke-linejoin:miter;stroke-miterlimit:4;stroke-dasharray:none;stroke-opacity:1" />
  </g>
  <g
     inkscape:groupmode="layer"
     id="layer3"
     inkscape:label="Reflet final"
     style="display:inline"
     sodipodi:insensitive="true">
    <path
       style="fill:url(#radialGradient3236);fill-opacity:1"
       d="M 1.5,1.5 L 1.5,460.3679 C 1.5,626.67854 135.81454,761.5 301.49993,761.5 C 467.1854,761.5 601.5,626.67854 601.5,460.3679 L 601.5,1.5 L 1.5,1.5 z "
       id="path2346" />
  </g>
  <g
     inkscape:groupmode="layer"
     id="layer4"
     inkscape:label="Contour final"
     style="display:inline"
     sodipodi:insensitive="true">
    <path
       style="fill:none;fill-opacity:1;stroke:#000000;stroke-width:3;stroke-miterlimit:4;stroke-dasharray:none;stroke-opacity:1"
       d="M 1.5,1.5 L 1.5,460.36794 C 1.5,626.67854 135.81454,761.5 301.49993,761.5 C 467.1854,761.5 601.5,626.67854 601.5,460.36794 L 601.5,1.5 L 1.5,1.5 z"
       id="path3239" />
  </g>
</svg>

<svg xmlns="http://www.w3.org/2000/svg" xmlns:xlink="http://www.w3.org/1999/xlink" height="763" width="603" version="1.0"><defs><radialGradient xlink:href="#a" id="b" gradientUnits="userSpaceOnUse" gradientTransform="matrix(1.21503 0 0 1.26667 -839.192 -490.49)" cx="858.042" cy="579.933" fx="858.042" fy="579.933" r="300"/><linearGradient id="a"><stop style="stop-color:#fff;stop-opacity:.3137255" offset="0"/><stop offset=".19" style="stop-color:#fff;stop-opacity:.25098041"/><stop style="stop-color:#6b6b6b;stop-opacity:.1254902" offset=".6"/><stop style="stop-color:#000;stop-opacity:.1254902" offset="1"/></linearGradient></defs><g style="display:inline"><path d="M1.5 1.5v458.868c0 166.31 134.315 301.132 300 301.132s300-134.822 300-301.132V1.5H1.5z" style="fill:#fff;fill-opacity:1"/></g><g style="display:inline"><path style="opacity:1;fill:#5ab532;fill-opacity:1;fill-rule:evenodd;stroke:#000;stroke-width:3.26397681;stroke-linecap:butt;stroke-linejoin:miter;stroke-miterlimit:4;stroke-dasharray:none;stroke-opacity:1" d="M1.5 1.5v318.906c4.35.627 8.446.91 12.094.719 25.158-1.316 46.42-20.132 72-20 25.579.132 44.521 20.132 71.969 20 27.447-.132 46.49-20 71.968-20s45.149 20 71.969 20c26.82 0 45.442-19.868 71.969-20 26.526-.132 46.521 19.868 71.969 20 25.447.132 49.665-20 71.968-20 22.304 0 42.606 19.868 72 20 3.847.017 7.92-.32 12.094-.906V1.5H1.5zm84.094 319.375c-24.421-.132-47.039 20-72 20-3.637 0-7.734-.43-12.094-1.156v20.687c4.35.627 8.446.91 12.094.719 25.158-1.316 46.42-20.132 72-20 25.579.132 44.521 20.132 71.969 20 27.447-.132 46.49-20 71.968-20s45.149 20 71.969 20c26.82 0 45.442-19.868 71.969-20 26.526-.132 46.521 19.868 71.969 20 25.447.132 49.665-20 71.968-20 22.304 0 42.606 19.868 72 20 3.847.017 7.92-.32 12.094-.906v-20.344c-4.173.605-8.247.983-12.094 1-29.394.132-49.778-20-72-20s-47.416 20.132-71.968 20c-26.77-.144-45.443-19.868-71.97-20-26.526-.132-45.176 20-71.968 20s-46.93-20-71.969-20c-25.038 0-44.521 20.132-71.969 20-27.447-.132-47.547-19.868-71.968-20zm0 40c-24.421-.132-47.039 20-72 20-3.637 0-7.734-.43-12.094-1.156v20.687c4.35.627 8.446.91 12.094.719 25.158-1.316 46.42-20.132 72-20 25.579.132 44.521 20.132 71.969 20 27.447-.132 46.49-20 71.968-20s45.149 20 71.969 20c26.82 0 45.442-19.868 71.969-20 26.526-.132 46.521 19.868 71.969 20 25.447.132 49.665-20 71.968-20 22.304 0 42.606 19.868 72 20 3.847.017 7.92-.32 12.094-.906v-20.344c-4.173.605-8.247.983-12.094 1-29.394.132-49.778-20-72-20s-47.416 20.132-71.968 20c-26.77-.144-45.443-19.868-71.97-20-26.526-.132-45.176 20-71.968 20s-46.93-20-71.969-20c-25.038 0-44.521 20.132-71.969 20-27.447-.132-47.547-19.868-71.968-20zm0 40c-24.421-.132-47.039 20-72 20-3.637 0-7.734-.43-12.094-1.156v20.687c4.35.627 8.446.91 12.094.719 25.158-1.316 46.42-20.132 72-20 25.579.132 44.521 20.132 71.969 20 27.447-.132 46.49-20 71.968-20s45.149 20 71.969 20c26.82 0 45.442-19.868 71.969-20 26.526-.132 46.521 19.868 71.969 20 25.447.132 49.665-20 71.968-20 22.304 0 42.606 19.868 72 20 3.847.017 7.92-.32 12.094-.906v-20.344c-4.173.605-8.247.983-12.094 1-29.394.132-49.778-20-72-20s-47.416 20.132-71.968 20c-26.77-.144-45.443-19.868-71.97-20-26.526-.132-45.176 20-71.968 20s-46.93-20-71.969-20c-25.038 0-44.521 20.132-71.969 20-27.447-.132-47.547-19.868-71.968-20z"/><path style="opacity:1;fill:#5ab532;fill-opacity:1;fill-rule:evenodd;stroke:#000;stroke-width:3.09809923;stroke-linecap:butt;stroke-linejoin:miter;stroke-miterlimit:4;stroke-dasharray:none;stroke-opacity:1" d="M377.883 719.749h34.234c-9.985-7.132-9.985-49.924-8.559-85.583l41.365 7.132-14.263-14.264 42.79 7.132c-21.395-14.264-35.659-28.528-49.922-57.056l28.527 7.132c-21.395-21.395-28.527-35.66-42.791-57.055l21.396 7.132C409.264 512.923 402.132 491.528 395 463c-7.132 28.528-14.264 49.923-35.66 71.319l21.396-7.132c-14.264 21.396-21.396 35.66-42.791 57.055l28.527-7.132c-14.263 28.528-28.527 42.792-49.923 57.056l42.791-7.132-14.263 14.264 41.365-7.132c1.426 35.66 1.426 78.45-8.559 85.583z"/><path d="M284.383 282.509h34.234c-9.985-7.132-9.985-49.923-8.559-85.583l41.365 7.132-14.263-14.264 42.79 7.132c-21.395-14.264-35.659-28.527-49.922-57.055l28.527 7.132c-21.395-21.396-28.527-35.66-42.791-57.055l21.396 7.131c-21.396-21.395-28.528-42.791-35.66-71.319-7.132 28.528-14.264 49.924-35.66 71.32l21.396-7.132c-14.264 21.395-21.396 35.66-42.791 57.055l28.527-7.132c-14.263 28.528-28.527 42.791-49.923 57.055l42.791-7.132-14.263 14.264 41.365-7.132c1.426 35.66 1.426 78.451-8.559 85.583zM472.883 282.509h34.234c-9.985-7.132-9.985-49.923-8.559-85.583l41.365 7.132-14.263-14.264 42.791 7.132c-21.396-14.264-35.66-28.527-49.923-57.055l28.527 7.132c-21.395-21.396-28.527-35.66-42.791-57.055l21.396 7.131C504.264 75.684 497.132 54.288 490 25.76c-7.132 28.528-14.264 49.924-35.66 71.32l21.396-7.132c-14.264 21.395-21.396 35.66-42.791 57.055l28.527-7.132c-14.263 28.528-28.527 42.791-49.923 57.055l42.791-7.132-14.263 14.264 41.365-7.132c1.426 35.66 1.426 78.451-8.559 85.583zM92.883 282.509h34.234c-9.985-7.132-9.985-49.923-8.559-85.583l41.365 7.132-14.263-14.264 42.791 7.132c-21.396-14.264-35.66-28.527-49.923-57.055l28.527 7.132c-21.395-21.396-28.527-35.66-42.791-57.055l21.396 7.131C124.264 75.684 117.132 54.288 110 25.76c-7.132 28.528-14.264 49.924-35.66 71.32l21.396-7.132c-14.264 21.395-21.396 35.66-42.791 57.055l28.527-7.132c-14.263 28.528-28.527 42.791-49.923 57.055l42.791-7.132-14.263 14.264 41.365-7.132c1.426 35.66 1.426 78.451-8.559 85.583z" style="opacity:1;fill:#fff;fill-opacity:1;fill-rule:evenodd;stroke:#000;stroke-width:3.09809899;stroke-linecap:butt;stroke-linejoin:miter;stroke-miterlimit:4;stroke-dasharray:none;stroke-opacity:1"/><path d="M187.883 719.749h34.234c-9.985-7.132-9.985-49.924-8.559-85.583l41.365 7.132-14.263-14.264 42.79 7.132c-21.395-14.264-35.659-28.528-49.922-57.056l28.527 7.132c-21.395-21.395-28.527-35.66-42.791-57.055l21.396 7.132C219.264 512.923 212.132 491.528 205 463c-7.132 28.528-14.264 49.923-35.66 71.319l21.396-7.132c-14.264 21.396-21.396 35.66-42.791 57.055l28.527-7.132c-14.263 28.528-28.527 42.792-49.923 57.056l42.791-7.132-14.263 14.264 41.365-7.132c1.426 35.66 1.426 78.45-8.559 85.583z" style="opacity:1;fill:#5ab532;fill-opacity:1;fill-rule:evenodd;stroke:#000;stroke-width:3.09809923;stroke-linecap:butt;stroke-linejoin:miter;stroke-miterlimit:4;stroke-dasharray:none;stroke-opacity:1"/></g><g style="display:inline"><path style="fill:url(#b);fill-opacity:1" d="M1.5 1.5v458.868c0 166.31 134.315 301.132 300 301.132s300-134.821 300-301.132V1.5H1.5z"/></g><g style="display:inline"><path style="fill:none;fill-opacity:1;stroke:#000;stroke-width:3;stroke-miterlimit:4;stroke-dasharray:none;stroke-opacity:1" d="M1.5 1.5v458.868c0 166.31 134.315 301.132 300 301.132s300-134.821 300-301.132V1.5H1.5z"/></g></svg>
